src/utils/icons/main/contact/image_2.svg

<svg width="80" height="80" viewBox="0 0 80 80" fill="none" xmlns="http://www.w3.org/2000/svg">
<path d="M8 29.9995C8 38.8739 13.2545 46.5211 20.8221 49.9995H8C8 62.1498 17.8497 71.9995 30 71.9995C38.8744 71.9995 46.5216 66.745 50 59.1775V71.9995C62.1503 71.9995 72 62.1498 72 49.9995C72 41.1251 66.7455 33.478 59.1779 29.9995H72C72 17.8492 62.1503 7.99951 50 7.99951C41.1256 7.99951 33.4784 13.254 30 20.8216V7.99951C17.8497 7.99951 8 17.8492 8 29.9995Z" fill="#404040"/>
<path d="M50 39.9996C50 45.5225 45.5228 49.9996 40 49.9996C34.4772 49.9996 30 45.5225 30 39.9996C30 34.4768 34.4772 29.9996 40 29.9996C45.5228 29.9996 50 34.4768 50 39.9996Z" fill="#FFD11A"/>
</svg>

<svg xmlns="http://www.w3.org/2000/svg" width="80" height="80" fill="none"><path fill="#404040" d="M8 30c0 8.874 5.255 16.521 12.822 20H8c0 12.15 9.85 22 22 22 8.874 0 16.522-5.255 20-12.822V72c12.15 0 22-9.85 22-22 0-8.875-5.254-16.522-12.822-20H72c0-12.15-9.85-22-22-22-8.874 0-16.522 5.254-20 12.822V8C17.85 8 8 17.85 8 30"/><path fill="#FFD11A" d="M50 40c0 5.523-4.477 10-10 10s-10-4.477-10-10 4.477-10 10-10 10 4.477 10 10"/></svg>
